gdscript/src/main/resources/icons/godot_editor/VisualShaderNodeTransformUniform.svg

<svg height="14" viewBox="0 0 14 14" width="14" xmlns="http://www.w3.org/2000/svg"><path d="m2 0c-1.1045695 0-2 .8954-2 2v10c0 1.1046.8954305 2 2 2h10c1.104569 0 2-.8954 2-2v-10c0-1.1046-.895431-2-2-2zm-1 1h1 2v1h-2v10h2v1h-2-1v-1-10zm9 0h3v11 1h-3v-1h2v-10h-2zm-.0292969 2a1.0001 1.0001 0 0 1 1.0292969 1v7h-2v-4.5859375l-1.2929688 1.2929687a1.0001 1.0001 0 0 1 -1.4140624 0l-1.2929688-1.2929687v4.5859375h-2v-7a1.0001 1.0001 0 0 1 .984375-.9980469 1.0001 1.0001 0 0 1 .7226562.2910157l2.2929688 2.2929687 2.2929688-2.2929687a1.0001 1.0001 0 0 1 .6777343-.2929688z" fill="#ea686c"/></svg>

<svg height="14" viewBox="0 0 14 14" width="14" xmlns="http://www.w3.org/2000/svg"><path d="M2 0a2 2 0 0 0-2 2v10a2 2 0 0 0 2 2h10a2 2 0 0 0 2-2V2a2 2 0 0 0-2-2zM1 1h3v1H2v10h2v1H1zm9 0h3v12h-3v-1h2V2h-2zm1 10H9V6.414L7.707 7.707a1 1 0 0 1-1.414 0L5 6.414V11H3V4a1 1 0 0 1 1.707-.707L7 5.586l2.293-2.293A1 1 0 0 1 11 4z" fill="#ea686c"/></svg>
